app/assets/images/expired-icon.svg

<svg width="19" height="19" viewBox="0 0 19 19" fill="none" xmlns="http://www.w3.org/2000/svg">
<path d="M18.9988 9.35715C19.0766 14.3664 15.225 18.5984 10.2074 18.9729C4.83648 19.3756 0.242895 15.2425 0.00968281 9.90824C-0.22353 4.71532 3.78349 0.257179 9.05551 0.00989699C14.4123 -0.23032 18.8858 3.93108 18.9988 9.35715ZM9.51486 8.474C9.44419 8.41042 9.40179 8.36802 9.35232 8.31857C8.40534 7.37183 7.45129 6.41803 6.5043 5.47129C6.43363 5.40064 6.36296 5.32999 6.27816 5.27347C6.03788 5.11097 5.78346 5.1039 5.52905 5.23814C5.27463 5.37238 5.14743 5.59847 5.15449 5.88814C5.15449 6.12836 5.2817 6.31205 5.44424 6.47455C6.40536 7.42835 7.35941 8.38922 8.32053 9.34302C8.37 9.39248 8.44067 9.41367 8.50428 9.449C8.49721 9.47726 8.49014 9.50552 8.48308 9.53378C8.42654 9.56911 8.37 9.59737 8.3276 9.64683C7.37355 10.6006 6.4195 11.5544 5.46545 12.5012C5.40891 12.5577 5.35237 12.6213 5.3029 12.6849C5.01315 13.0734 5.1757 13.6316 5.62092 13.7941C5.95307 13.9142 6.22869 13.8082 6.46897 13.568C7.43008 12.6001 8.39827 11.6392 9.36646 10.6713C9.40886 10.6289 9.45833 10.5865 9.5078 10.537C9.55727 10.5865 9.59967 10.6218 9.64207 10.6642C10.3841 11.4061 11.1262 12.1479 11.8682 12.8827C12.1297 13.1441 12.3841 13.4196 12.6597 13.6599C13.0625 14.0202 13.6844 13.8294 13.8328 13.3137C13.9176 13.0028 13.8116 12.7555 13.5855 12.5294C12.6173 11.5686 11.6491 10.6006 10.688 9.6327C10.6385 9.58324 10.5961 9.53378 10.5325 9.46313C10.6032 9.39954 10.6597 9.36422 10.7092 9.31476C11.6632 8.36096 12.6244 7.41422 13.5643 6.45336C13.6986 6.31912 13.8046 6.12836 13.8399 5.94466C13.9035 5.63379 13.7551 5.37945 13.4724 5.23108C13.1968 5.08271 12.9212 5.1039 12.6809 5.30173C12.4901 5.46423 12.3134 5.64792 12.1367 5.82455C11.2604 6.71477 10.3982 7.58379 9.51486 8.474Z" fill="#4F4F4F"/>
</svg>

<svg width="19" height="19" fill="none" xmlns="http://www.w3.org/2000/svg"><path d="M18.999 9.357c.078 5.01-3.774 9.241-8.792 9.616-5.37.403-9.964-3.73-10.197-9.065A9.487 9.487 0 0 1 9.056.01c5.356-.24 9.83 3.921 9.943 9.347zm-9.484-.883c-.07-.064-.113-.106-.163-.155L6.504 5.47c-.07-.07-.141-.141-.226-.198a.687.687 0 0 0-.749-.035.674.674 0 0 0-.375.65c0 .24.128.424.29.587.961.953 1.915 1.914 2.877 2.868.049.05.12.07.183.106l-.02.085c-.057.035-.114.063-.156.113-.954.954-1.908 1.907-2.863 2.854-.056.057-.113.12-.162.184a.721.721 0 0 0 .318 1.11c.332.12.608.013.848-.227.961-.968 1.93-1.929 2.897-2.897.043-.042.092-.085.142-.134.05.05.092.085.134.127.742.742 1.484 1.484 2.226 2.219.262.261.516.537.792.777a.718.718 0 0 0 1.173-.346c.085-.311-.021-.559-.248-.785-.968-.96-1.936-1.928-2.897-2.896-.05-.05-.092-.1-.155-.17.07-.063.127-.099.176-.148.954-.954 1.915-1.9 2.855-2.862a1.03 1.03 0 0 0 .276-.508c.063-.311-.085-.566-.368-.714-.275-.148-.55-.127-.791.07-.19.163-.368.347-.544.524-.877.89-1.739 1.759-2.622 2.649z" fill="#4F4F4F"/></svg>
